!!!OTL: SCHOENSTER SCHATZ THU MIR ERLAUBEN
!!!ARE: Europa, Mitteleuropa, Deutschland, Hessen, Unter- Lahn- und Dillkreis
!!!SCT: E1428
!!!YEM: Copyright 1995, estate of Helmut Schaffrath.
**kern
*ICvox
*Ivox
*M4/4
*k[f#]
*G:
{8d
8d
=1
4g
4d
4g
4b
=2
4.a
8f#
4d}
{8d
8f#
=3
4a
8cc
8ee
4ee
8dd
8cc
=4
2b
4r}
{8g
8g
=5
4cc
4ee
4gg
8ff#
8ee
=6
4.dd
8b
4dd}
{8ee
8dd
=7
4cc
4d
4b
4a
=8
2g
4r}
==
!!!AGN: Staende -, Soldaten - Lied, Liebe
!!!ONB: ESAC (Essen Associative Code) Database: ERK3
!!!AMT: simple quadruple
!!!AIN: vox
!!!EED: Helmut Schaffrath
!!!EEV: 1.0
*-
